app/dist/common/images/cognex.svg

<svg height="18" width="18" xmlns="http://www.w3.org/2000/svg"><path d="m0 0h18v18h-18z" fill="#fff200"/><path d="m4 10.167c0 2.293 1.26 2.833 3.38 2.833h3.792c2.362 0 2.828-1.037 2.828-2.356v-.644h-2c0 .973-.249 1-1.308 1h-3.318c-1.112 0-1.374-.443-1.374-1.578v-.844c0-.972.262-1.578 1.501-1.578h3.37c.7 0 1.129.173 1.129.735v.265h1.905c.02-2.216-.413-3-3.76-3h-2.767c-2.117 0-3.378.54-3.378 2.833z"/></svg>

<!-- by TradingView --><svg width="18" height="18" xmlns="http://www.w3.org/2000/svg"><path fill="#FFF200" d="M0 0h18v18H0z"/><path d="M4 10.167C4 12.46 5.26 13 7.38 13h3.792C13.534 13 14 11.963 14 10.644V10h-2c0 .973-.249 1-1.308 1H7.374C6.262 11 6 10.557 6 9.422v-.844C6 7.606 6.262 7 7.501 7h3.37c.7 0 1.129.173 1.129.735V8h1.905c.02-2.216-.413-3-3.76-3H7.378C5.261 5 4 5.54 4 7.833v2.334z" fill="#000"/></svg>
